!!!COM: Edouard Lalo
!!!CNT: Francais
!!!TXO: Francais
!!!OTL: Le Vieux Vagabond
!!!OPR: 6 Romances Populaires
!!!ONM: No. 6
!!!LYR: Pierre Jean de Be/ranger
!!!ENC: Jacob Pegg
!!!YOR: Romantic French Song 1830-1870, David Tunley, ed., New !!!YOR: York: Garland Publishing, Inc., 1995, vol. 3
!!!ODT: 1849/
!!NB: Vocal melody and text only encoded.
!!NB: First instance of melodic material only encoded.
**kern	**silbe
*clef F4	*
*k[f#]	*
*M4/4	*
=1	=1
2r	.
8r	.
{8B	{Dans
8.B	ce
16A#	fos-
=2	=2
[2B	-se/
8B]	|
8G	ces-
8.G	-sons
16F#	de
=3	=3
(2F#	vi-
16E)}	-vre.}
16r	.
{8B	{Je
8A	fi-
8B	-nis
=4	=4
[2c	vieux,
8c]	|
8A	in-
8.A	-firme
16G	et
=5	=5
[2F#	las!
8F#]}	|}
8r	.
!!dot added to F#
{8.F#	{Les
16G	pas-
=6	=6
[4F#	-sants
8.F#]	|
16B	vont
[4B	dire:
16B]	|
16r	.
16A	il
16B	est
=7	=7
(2A	i-
8G)}	-vre.}
8r	.
8r	.
16r	.
{16G	{Tant
=8	=8
[4G	mieux!
16G]	|
16r	.
8F#	Ils
8F#	ne
8E	me
8.D#	plain-
16C#	-dront
=9	=9
[2G	pas!
8G]}	|}
8r	.
8r	.
{8B	{J'en
=10	=10
4.B	vois
8G	qui
8G	d'e/-
8G	-tour-
8.G	-nent
16F#	la
=11	=11
(2F#	te^-
8E)	-te,
8B	D'au-
8A	-tres
8B	me
=12	=12
[2c	jet-
8c]	|
8A	-tent
8.A	quel-
16G	-ques
=13	=13
[2F#	sous,
8F#]}	|}
8r	.
{8.A	{Cou-
16d	-rez
=14	=14
4..d	vite;
16d	al-
(8d	-lez
8c)	|
8.G	a\
16A	la
=15	=15
[2B	fe^-
16B]}	-te.}
16r	.
8r	.
{8B	{Vieux
16B	va-
16B	-ga-
=16	=16
4.e	-bond,
8c	je
!!Divisi - top voice only encoded. 
8B	puis
8F#	mou-
(16F#q	|
16Aq	|
8.G)	-rir
16F#	sans
=17	=17
[4E	vous!
16E]}	|}
16r	.
8r	.
2r	.
*-	*-
